images/social-dribbble-blue.svg

<svg id="Layer_1" xmlns="http://www.w3.org/2000/svg" width="16" height="16" viewBox="0 0 16 16"><style>.st0{fill:#0aa7e2}</style><path class="st0" d="M8 0C3.6 0 0 3.6 0 8s3.6 8 8 8 8-3.6 8-8-3.6-8-8-8zm6 8v.6c-1-.3-1.9-.5-3-.5h-.5c-.1-.5-.3-1-.5-1.5 1-.5 2-1.2 2.8-2.1.8 1 1.2 2.2 1.2 3.5zm-2.3-4.7c-.8.7-1.6 1.4-2.6 1.8C8.4 4 7.5 3 6.4 2.2c.5-.1 1-.2 1.6-.2 1.4 0 2.6.5 3.7 1.3zm-7.1-.2c1.2.7 2.2 1.6 2.9 2.7-1.7.5-3.4.5-5.1 0 .5-1.1 1.2-2 2.2-2.7zM2 8v-.6c1 .3 2 .4 3 .4 1.1 0 2.3-.2 3.3-.5.2.4.3.7.5 1.1-2.1.5-4 1.7-5.4 3.4C2.5 10.8 2 9.4 2 8zm2.6 4.9c1.1-1.4 2.7-2.4 4.5-2.9v.9c0 1-.2 2-.5 3H8c-1.3.1-2.4-.3-3.4-1zm6 .5c.2-.8.3-1.6.3-2.4 0-.4 0-.8-.1-1.1h.2c.9 0 1.7.1 2.6.4-.6 1.3-1.7 2.5-3 3.1z" id="Dribbble_1"/></svg>

<?xml version="1.0" encoding="utf-8"?>
<!-- Generator: Adobe Illustrator 20.0.0, SVG Export Plug-In . SVG Version: 6.00 Build 0)  -->
<svg version="1.1" id="Layer_1" xmlns="http://www.w3.org/2000/svg" xmlns:xlink="http://www.w3.org/1999/xlink" x="0px" y="0px"
	 width="16px" height="16px" viewBox="0 0 16 16" style="enable-background:new 0 0 16 16;" xml:space="preserve">
<style type="text/css">
	.st0{fill:#0AA7E2;}
</style>
<g id="Dribbble_1">
	<path class="st0" d="M8,0C3.6,0,0,3.6,0,8s3.6,8,8,8s8-3.6,8-8S12.4,0,8,0z M14,8c0,0.2,0,0.4,0,0.6c-1-0.3-1.9-0.5-3-0.5
		c-0.2,0-0.4,0-0.5,0c-0.1-0.5-0.3-1-0.5-1.5c1-0.5,2-1.2,2.8-2.1C13.6,5.5,14,6.7,14,8z M11.7,3.3C10.9,4,10.1,4.7,9.1,5.1
		C8.4,4,7.5,3,6.4,2.2C6.9,2.1,7.4,2,8,2C9.4,2,10.6,2.5,11.7,3.3z M4.6,3.1c1.2,0.7,2.2,1.6,2.9,2.7c-1.7,0.5-3.4,0.5-5.1,0
		C2.9,4.7,3.6,3.8,4.6,3.1z M2,8c0-0.2,0-0.4,0-0.6c1,0.3,2,0.4,3,0.4c1.1,0,2.3-0.2,3.3-0.5C8.5,7.7,8.6,8,8.8,8.4
		c-2.1,0.5-4,1.7-5.4,3.4C2.5,10.8,2,9.4,2,8z M4.6,12.9c1.1-1.4,2.7-2.4,4.5-2.9c0,0.3,0,0.6,0,0.9c0,1-0.2,2-0.5,3
		c-0.2,0-0.4,0-0.6,0C6.7,14,5.6,13.6,4.6,12.9z M10.6,13.4c0.2-0.8,0.3-1.6,0.3-2.4c0-0.4,0-0.8-0.1-1.1c0.1,0,0.1,0,0.2,0
		c0.9,0,1.7,0.1,2.6,0.4C13,11.6,11.9,12.8,10.6,13.4z"/>
</g>
</svg>
